!!!COM: Palestrina, Giovanni Perluigi da
!!!OPR: In festis Apostolorum (I)
!!!OTL: Gloria
**kern	**kern	**kern	**kern	**kern
*Ibass	*Itenor	*Itenor	*Icalto	*Icant
!Bassus	!Tenor 2	!Tenor 1	!Altus	!Cantus
*clefF4	*clefGv2	*clefGv2	*clefG2	*clefG2
*k[]	*k[]	*k[]	*k[]	*k[]
*D:dor	*D:dor	*D:dor	*D:dor	*D:dor
*M4/2	*M4/2	*M4/2	*M4/2	*M4/2
=1	=1	=1	=1	=1
1C	0r	2r	0r	0r
.	.	1c	.	.
1D	.	.	.	.
.	.	2B	.	.
=2	=2	=2	=2	=2
1F	0r	2A	0r	0r
.	.	2A	.	.
[1G	.	4B	.	.
.	.	4A	.	.
.	.	4G	.	.
.	.	4A	.	.
=3	=3	=3	=3	=3
2G]	1r	4B	0r	1r
.	.	4c	.	.
2F	.	1d	.	.
1E	1G	.	.	2r
.	.	2c#	.	[2g
=4	=4	=4	=4	=4
1D	1A	1d	0r	2g]
.	.	.	.	2f
2r	1c	1A	.	2e
[2A	.	.	.	2e
=5	=5	=5	=5	=5
4A]	1.d	1D	0r	4f
4G	.	.	.	4e
4F	.	.	.	4d
4E	.	.	.	4e
2D	.	2r	.	4f
.	.	.	.	4g
2AA	2c	2E	.	[2a
=6	=6	=6	=6	=6
1E	1B	2E	0r	2a]
.	.	2.e	.	2g#
1AA	2A	.	.	1a
.	.	4d	.	.
.	2E	4c	.	.
.	.	4B	.	.
=7	=7	=7	=7	=7
1AA	2F	1A	1c	2r
.	2E	.	.	1cc
1GG	1G	2D	1d	.
.	.	[2d	.	2b
=8	=8	=8	=8	=8
2.D	1A	4d]	1f	2a
.	.	4c	.	.
.	.	2d	.	2a
4D	.	.	.	.
1GG	2.G	[1B	[1g	4b
.	.	.	.	4a
.	.	.	.	4g
.	8F	.	.	4a
.	8E	.	.	.
=9	=9	=9	=9	=9
1GG	1D	1B]	2g]	4b
.	.	.	.	4cc
.	.	.	2f	1dd
1AA	1A	2r	1e	.
.	.	2E	.	2cc#
=10	=10	=10	=10	=10
[0D	1.A	2.F	[0d	[0dd
.	.	4G	.	.
.	.	2A	.	.
.	2G	2B-	.	.
=11	=11	=11	=11	=11
1D_	[0F#	[0A	1d_	1dd_
1D_	.	.	1d_	1dd_
=12	=12	=12	=12	=12
0D]	0F#]	0A]	0d]	0dd]
!! Benedicimus te
*Ibass	*Itenor	*Itenor	*Icalto	*Icant
!Bassus	!Tenor 2	!Tenor 1	!Altus	!Cantus
*clefF4	*clefGv2	*clefGv2	*clefG2	*clefG2
*k[]	*k[]	*k[]	*k[]	*k[]
*D:dor	*D:dor	*D:dor	*D:dor	*D:dor
*M4/2	*M4/2	*M4/2	*M4/2	*M4/2
=13	=13	=13	=13	=13
0r	0r	0r	1A	0r
.	.	.	2c	.
.	.	.	[2d	.
=14	=14	=14	=14	=14
0r	0r	0r	4d]	1e
.	.	.	4c	.
.	.	.	2c	.
.	.	.	2B	2g
.	.	.	4A	[2a
.	.	.	4B	.
=15	=15	=15	=15	=15
0r	0r	0r	4c	4a]
.	.	.	4d	4a
.	.	.	2.e	2g
.	.	.	.	2.f
.	.	.	4d	.
.	.	.	[2d	.
.	.	.	.	4g
=16	=16	=16	=16	=16
0r	1A	0r	2d]	4a
.	.	.	.	4b
.	.	.	2c	1cc
.	2c	.	2e	.
.	[2d	.	[2f	4b
.	.	.	.	4a
=17	=17	=17	=17	=17
1r	4d]	0r	4f]	4b
.	4c	.	4e	4a
.	2c	.	2e	1a
1E	2B	.	1e	.
.	[2e	.	.	2g
=18	=18	=18	=18	=18
2G	4e]	0r	2r	2b
.	4d	.	.	.
2.A	4c	.	2A	2.cc
.	4B	.	.	.
.	2A	.	2c	.
4A	.	.	.	4cc
2G	2B	.	[2e	[2b
=19	=19	=19	=19	=19
1F	2c	0r	4e]	4b]
.	.	.	4e	4a
.	2A	.	2d	1a
1E	2B	.	2.e	.
.	[2e	.	.	2g#
.	.	.	4d	.
=20	=20	=20	=20	=20
2r	4e]	1A	4c	2a
.	4d	.	4d	.
1AA	4c	.	4e	2cc
.	4B	.	4d	.
.	2A	2c	4e	2cc
.	.	.	4f	.
2GG	4B	[2d	2g	2b
.	4G	.	.	.
=21	=21	=21	=21	=21
2D	4A	4d]	2f	2a
.	4B	4d	.	.
2AA	4c	2c	2.e	2.a
.	4d	.	.	.
1E	[1e	1B	.	.
.	.	.	4d	8g#
.	.	.	.	8f#
.	.	.	2B	2g#
=22	=22	=22	=22	=22
[0AA	1e]	[0A	2.c#	[0a
.	.	.	4d	.
.	1c#	.	1e	.
=23	=23	=23	=23	=23
1AA_	[0c#	1A_	[0e	1a_
1AA_	.	1A_	.	1a_
=24	=24	=24	=24	=24
0AA]	0c#]	0A]	0e]	0a]
!! Glorificamus te
*Ibass	*Itenor	*Itenor	*Icalto	*Icant
!Bassus	!Tenor 2	!Tenor 1	!Altus	!Cantus
*clefF4	*clefGv2	*clefGv2	*clefG2	*clefG2
*k[]	*k[]	*k[]	*k[]	*k[]
*D:dor	*D:dor	*D:dor	*D:dor	*D:dor
*M4/2	*M4/2	*M4/2	*M4/2	*M4/2
=25	=25	=25	=25	=25
0r	0r	0r	2r	1a
.	.	.	1d	.
.	.	.	.	2b
.	.	.	2e	2cc
=26	=26	=26	=26	=26
0r	0r	0r	2f	2.dd
.	.	.	2.g	.
.	.	.	.	4cc
.	.	.	.	4b
.	.	.	4f	4a
.	.	.	4e	4g
.	.	.	4d	4f
=27	=27	=27	=27	=27
0r	0r	1A	4c	2.e
.	.	.	4d	.
.	.	.	4e	.
.	.	.	4c	4f
.	.	2B	2d	2g
.	.	2c	2A	[2a
=28	=28	=28	=28	=28
0r	0r	1.d	1B	2a]
.	.	.	.	2g
.	.	.	2A	2f
.	.	2c	2a	2e
=29	=29	=29	=29	=29
2r	0r	2B	2g	1d
2D	.	2A	2f	.
2E	.	2G	2e	2r
2F	.	2F	[2d	2a
=30	=30	=30	=30	=30
1.G	1r	1E	2d]	2b
.	.	.	2c	2cc
.	2r	1D	2B	[1dd
2F	2A	.	2A	.
=31	=31	=31	=31	=31
1E	2B	2G	2e	2dd]
.	2c	4G	1g	2cc
.	.	4A	.	.
1D	2.d	4B	.	2b
.	.	4c	.	.
.	.	[2d	2f	2a
.	4c	.	.	.
=32	=32	=32	=32	=32
0E	2B	2d]	1e	2g#
.	2A	2c	.	1a
.	1B	2B	1e	.
.	.	2E	.	2g#
=33	=33	=33	=33	=33
[0AA	[0A	[0E	[0c#	[0a
=34	=34	=34	=34	=34
0AA]	0A]	0E]	0c#]	0a]
!! Domine Deus Rex
*Ibass	*Itenor	*Itenor	*Icalto	*Icant
!Bassus	!Tenor 2	!Tenor 1	!Altus	!Cantus
*clefF4	*clefGv2	*clefGv2	*clefG2	*clefG2
*k[]	*k[]	*k[]	*k[]	*k[]
*D:dor	*D:dor	*D:dor	*D:dor	*D:dor
*M4/2	*M4/2	*M4/2	*M4/2	*M4/2
=35	=35	=35	=35	=35
1.A	0r	1r	0r	0r
.	.	[1D	.	.
2G	.	.	.	.
=36	=36	=36	=36	=36
2F	0r	2D]	1r	0r
2E	.	2C	.	.
2.D	.	1F	[1a	.
4C	.	.	.	.
=37	=37	=37	=37	=37
1BB	0r	1G	2a]	1.d
.	.	.	2g	.
2AA	.	[1A	2f	.
2A	.	.	2e	2c
=38	=38	=38	=38	=38
2D	0r	1A]	2.d	1f
2D	.	.	.	.
.	.	.	4c	.
1E	.	2r	1B	1g
.	.	2e	.	.
=39	=39	=39	=39	=39
1AA	1c	2e	1A	2a
.	.	1e	.	1cc
1r	1G	.	2r	.
.	.	[2d	2d	2b
=40	=40	=40	=40	=40
0r	1F	4d]	2.f	1a
.	.	4c	.	.
.	.	1c	.	.
.	.	.	4e	.
.	1G	.	2d	2.g
.	.	2B	[2e	.
.	.	.	.	4f
=41	=41	=41	=41	=41
2r	1A	1c	4e]	1e
.	.	.	4d	.
1A	.	.	4c	.
.	.	.	4B	.
.	2r	1r	2c	2f
2G	[2d	.	2B	2g
=42	=42	=42	=42	=42
1A	2d]	0r	2r	1e
.	2c	.	1A	.
1D	1d	.	.	1f
.	.	.	2B	.
=43	=43	=43	=43	=43
2E	1G	0r	2c	1e
1G	.	.	2B	.
.	1A	.	1d	2r
2F	.	.	.	[2a
=44	=44	=44	=44	=44
2.E	2c	0r	1e	2a]
.	2.B	.	.	2g
4D	.	.	.	.
2C	.	.	2e	1a
.	4A	.	.	.
2D	[2A	.	2f	.
=45	=45	=45	=45	=45
1BB	4A]	2r	0r	1d
.	4G#	.	.	.
.	4G#	1d	.	.
.	4F#	.	.	.
2AA	2.A	.	.	1e
2A	.	2c	.	.
.	8G#	.	.	.
.	8A	.	.	.
=46	=46	=46	=46	=46
2G	2B	1d	2r	2g
2D	2A	.	1d	2f
1E	2r	1G	.	1g
.	[2G	.	2c	.
=47	=47	=47	=47	=47
1D	2G]	1A	1d	2r
.	2F	.	.	2dd
2r	2E	1c	2G	4cc
.	.	.	.	4b
2A	[2F	.	[2A	4a
.	.	.	.	4g
=48	=48	=48	=48	=48
1D	4F]	2.d	2A]	4f
.	4G	.	.	4e
.	2A	.	1f	4d
.	.	4c	.	4e
1D	2.d	2B-	.	4f
.	.	.	.	4g
.	.	2A	2f	4a
.	4c	.	.	4f
=49	=49	=49	=49	=49
0E	2B	2G	[0e	2g
.	2A	2c	.	1a
.	2B	1B	.	.
.	2e	.	.	2g#
=50	=50	=50	=50	=50
[0AA	[0c#	[0A	1e_	[0a
.	.	.	1e_	.
=51	=51	=51	=51	=51
0AA]	0c#]	0A]	0e]	0a]
!! Domine Deus Agnus
*Ibass	*Itenor	*Itenor	*Icalto	*Icant
!Bassus	!Tenor 2	!Tenor 1	!Altus	!Cantus
*clefF4	*clefGv2	*clefGv2	*clefG2	*clefG2
*k[]	*k[]	*k[]	*k[]	*k[]
*D:dor	*D:dor	*D:dor	*D:dor	*D:dor
*M4/2	*M4/2	*M4/2	*M4/2	*M4/2
=52	=52	=52	=52	=52
1E	0r	0r	0r	0r
2D	.	.	.	.
2C	.	.	.	.
=53	=53	=53	=53	=53
1D	0r	1A	0r	0r
2E	.	2G	.	.
[2F	.	2F	.	.
=54	=54	=54	=54	=54
2F]	0r	1G	0r	0r
2E	.	.	.	.
2D	.	1A	.	.
4C	.	.	.	.
4BB	.	.	.	.
=55	=55	=55	=55	=55
4AA	0r	1c	1e	0r
4BB	.	.	.	.
2C	.	.	.	.
2GG	.	2B	2d	.
2AA	.	[2A	2c	.
=56	=56	=56	=56	=56
1BB-	0r	4A]	1d	1r
.	.	4G	.	.
.	.	4G	.	.
.	.	8A	.	.
.	.	8B	.	.
1AA	.	2.c	[1e	1a
.	.	4A	.	.
=57	=57	=57	=57	=57
0r	0r	2c	2e]	2g
.	.	2d	1f	2f
.	.	2.c	.	1g
.	.	.	2e	.
.	.	4B	.	.
=58	=58	=58	=58	=58
1F	0r	1A	4d	2a
.	.	.	4c	.
.	.	.	4c	2cc
.	.	.	8d	.
.	.	.	8e	.
1D	.	1d	1f	2b
.	.	.	.	[2a
=59	=59	=59	=59	=59
2.E	0r	2c	1.e	2a]
.	.	2.B	.	2g#
4D	.	.	.	.
2C	.	.	.	1a
.	.	4A	.	.
2D	.	[2A	2f	.
=60	=60	=60	=60	=60
1BB	2r	2A]	1d	1r
.	2.d	2G#	.	.
1AA	.	1A	2r	2r
.	4c#	.	.	.
.	4c#	.	2e	[2a
.	8B	.	.	.
.	8c#	.	.	.
=61	=61	=61	=61	=61
0r	2d	0r	2f	2a]
.	2G	.	2g	2b
.	2.A	.	2f	2.cc
.	.	.	4e	.
.	4B	.	4d	4b
=62	=62	=62	=62	=62
0r	2c	0r	2e	4a
.	.	.	.	4g
.	1d	.	1f	2b-
.	.	.	.	1a
.	2c	.	[2e	.
=63	=63	=63	=63	=63
1r	1B-	0r	4e]	1d
.	.	.	4d	.
.	.	.	2.d	.
2r	2.A	.	.	[1e
.	.	.	4c#	.
[2A	.	.	4c#	.
.	8G	.	8B	.
.	8F	.	8A	.
=64	=64	=64	=64	=64
4A]	2E	0r	2B	1e]
4G#	.	.	.	.
4G#	2B	.	2e	.
8F#	.	.	.	.
8G#	.	.	.	.
2A	2c	.	2e	2r
2D	2d	.	2f	[2a
=65	=65	=65	=65	=65
1E	1B	1r	1e	4a]
.	.	.	.	4g#
.	.	.	.	4g#
.	.	.	.	8f#
.	.	.	.	8g#
2F#	2A	2r	1d	2a
2G	2B	[2d	.	2d
=66	=66	=66	=66	=66
1E	1G	4d]	1r	1e
.	.	4c#	.	.
.	.	4c#	.	.
.	.	8B	.	.
.	.	8c#	.	.
2D	2A	2d	2r	2f
2C	[2c	2G	[2e	2e
=67	=67	=67	=67	=67
2F	4c]	1A	4e]	1a
.	4B	.	4d	.
2F	2A	.	4d	.
.	.	.	8c	.
.	.	.	8d	.
2E	2G#	4B	2e	2r
.	.	4c	.	.
4D	2F#	[2d	2A	2a
4C	.	.	.	.
=68	=68	=68	=68	=68
2BB	2G#	2d]	2B	2d
2AA	1A	2c	1.e	2a
1E	.	1B	.	1b
.	2G#	.	.	.
=69	=69	=69	=69	=69
[0AA	[0A	[0A	[0e	[0cc#
=70	=70	=70	=70	=70
0AA]	0A]	0A]	0e]	0cc#]
!! Qui tollis
*Ibass	*Itenor	*Itenor	*Icalto	*Icant
!Bassus	!Tenor 2	!Tenor 1	!Altus	!Cantus
*clefF4	*clefGv2	*clefGv2	*clefG2	*clefG2
*k[]	*k[]	*k[]	*k[]	*k[]
*D:dor	*D:dor	*D:dor	*D:dor	*D:dor
*M4/2	*M4/2	*M4/2	*M4/2	*M4/2
=71	=71	=71	=71	=71
1D	0r	1r	0r	0r
2.F	.	1A	.	.
4G	.	.	.	.
=72	=72	=72	=72	=72
2A	0r	2.c	1A	0r
2.F	.	.	.	.
.	.	4B-	.	.
.	.	2A	2.c	.
8E	.	.	.	.
8D	.	.	.	.
2E	.	[2G	.	.
.	.	.	4B-	.
=73	=73	=73	=73	=73
2F	0r	4G]	2A	0r
.	.	4F	.	.
2BB-	.	1F	2B-	.
1C	.	.	1G	.
.	.	2E	.	.
=74	=74	=74	=74	=74
2r	1r	2F	0F	1a
1F	.	2.A	.	.
.	1A	.	.	2.cc
.	.	4B	.	.
[2A	.	4c	.	.
.	.	4d	.	4b-
=75	=75	=75	=75	=75
4A]	2.c	2.e	0r	2a
8G	.	.	.	.
8F	.	.	.	.
2E	.	.	.	2.g
.	4B-	4d	.	.
2F	2A	4c	.	.
.	.	4A	.	4f
2BB-	2B-	2d	.	[2f
=76	=76	=76	=76	=76
1C	1G	1c	2r	2f]
.	.	.	1c	2e
1F	2r	2A	.	1f
.	2F	[2c	2f	.
=77	=77	=77	=77	=77
0r	2A	2c]	2e	1r
.	2G	2e	2g	.
.	1B-	2d	2f	2r
.	.	[2f	2d	2f
=78	=78	=78	=78	=78
0r	2A	4f]	2c	2a
.	.	4e	.	.
.	2c	2.e	2e	2g
.	2B-	.	2f	1b-
.	.	4d	.	.
.	2G	[2d	2g	.
=79	=79	=79	=79	=79
1r	1A	2d]	1e	1a
.	.	2c#	.	.
2r	2D	1d	1d	[1a
[2D	[2F	.	.	.
=80	=80	=80	=80	=80
2D]	2F]	1.A	2r	1a]
4C#	4E	.	1e	.
4BB	4D	.	.	.
2C#	2E	.	.	1a
2D	2F#	2A	2d	.
=81	=81	=81	=81	=81
1GG	2.G	1B	2d	1g
.	.	.	1g	.
.	4F	.	.	.
1AA	2E	1c	.	1r
.	2A	.	[2f	.
=82	=82	=82	=82	=82
1C	1G	1c	4f]	1r
.	.	.	4e	.
.	.	.	2e	.
1D	2F	2A	2f	1a
.	2D	2F	2f	.
=83	=83	=83	=83	=83
1C	2E	2G	1e	1cc
.	1A	2A	.	.
1BB	.	2D	1d	[1dd
.	2G#	2D	.	.
=84	=84	=84	=84	=84
0AA	0A	2r	2f	2dd]
.	.	2A	4e	2cc
.	.	.	4d	.
.	.	1c	2e	2a
.	.	.	2f	[2cc
=85	=85	=85	=85	=85
1GG	2r	1d	2.g	2cc]
.	2B	.	.	2.b
.	.	.	4f	.
1AA	2c	1c	[1e	.
.	.	.	.	4a
.	[2e	.	.	2a
=86	=86	=86	=86	=86
0E	4e]	2B	0e]	2g#
.	4d	.	.	.
.	2c	2A	.	1a
.	2B	1B	.	.
.	2E	.	.	2g#
=87	=87	=87	=87	=87
[0AA	[0E	[0A	[0c#	[0a
=88	=88	=88	=88	=88
0AA]	0E]	0A]	0c#]	0a]
!! Quoniam
*Ibass	*Itenor	*Itenor	*Icalto	*Icant
!Bassus	!Tenor 2	!Tenor 1	!Altus	!Cantus
*clefF4	*clefGv2	*clefGv2	*clefG2	*clefG2
*k[]	*k[]	*k[]	*k[]	*k[]
*D:dor	*D:dor	*D:dor	*D:dor	*D:dor
*M4/2	*M4/2	*M4/2	*M4/2	*M4/2
=89	=89	=89	=89	=89
0r	0r	0r	1r	1.a
.	.	.	1e	.
.	.	.	.	2g
=90	=90	=90	=90	=90
0r	2r	0r	2d	2f
.	1A	.	2c	2a
.	.	.	1e	2cc
.	2G	.	.	2b-
=91	=91	=91	=91	=91
0r	2F	0r	1f	1.a
.	2A	.	.	.
.	2.c	.	2.e	.
.	.	.	.	2g
.	4B-	.	4d	.
=92	=92	=92	=92	=92
0r	2A	0r	2c	4f
.	.	.	.	4e
.	2G	.	2.e	2.g
.	1B-	.	.	.
.	.	.	4d	4f
.	.	.	[2d	4f
.	.	.	.	8e
.	.	.	.	8d
=93	=93	=93	=93	=93
0r	2.A	2r	2d]	1e
.	.	1A	2c#	.
.	4G	.	.	.
.	2F#	.	2d	2.d
.	2G	2G	2B	.
.	.	.	.	4e
=94	=94	=94	=94	=94
0r	1D	2F	0A	1f
.	.	2A	.	.
.	2r	[1c	.	2.e
.	[2A	.	.	.
.	.	.	.	4d
=95	=95	=95	=95	=95
1.E	2A]	2c]	0r	4e
.	.	.	.	4f
.	2G	4B	.	1g
.	.	4A	.	.
.	2E	2G	.	.
2D	2F	2A	.	2f
=96	=96	=96	=96	=96
2C	2.G	2c	1r	1e
2E	.	2B	.	.
.	4A	.	.	.
1G	4B	1E	2r	1r
.	4c	.	.	.
.	2B	.	2e	.
=97	=97	=97	=97	=97
1F	1A	2r	2d	1a
.	.	2A	2c	.
2E	1r	2B	2e	2g
2D	.	[2d	[2f	2f
=98	=98	=98	=98	=98
0F	2r	2d]	2f]	2a
.	2.A	4c	4e	2.cc
.	.	4B	4d	.
.	.	2A	2.c	.
.	4B	.	.	4b
.	[2c	4A	.	2a
.	.	4B	4d	.
=99	=99	=99	=99	=99
0E	2c]	4c	0e	2g#
.	.	4d	.	.
.	4B	2.e	.	1a
.	4A	.	.	.
.	1B	.	.	.
.	.	4d	.	.
.	.	2B	.	2g#
=100	=100	=100	=100	=100
[0AA	[0A	[0c#	[0e	[0a
=101	=101	=101	=101	=101
0AA]	0A]	0c#]	0e]	0a]
!! Tu solus Altissimus
*Ibass	*Itenor	*Itenor	*Icalto	*Icant
!Bassus	!Tenor 2	!Tenor 1	!Altus	!Cantus
*clefF4	*clefGv2	*clefGv2	*clefG2	*clefG2
*k[]	*k[]	*k[]	*k[]	*k[]
*D:dor	*D:dor	*D:dor	*D:dor	*D:dor
*M4/2	*M4/2	*M4/2	*M4/2	*M4/2
=102	=102	=102	=102	=102
0r	0r	1A	0r	0r
.	.	1c	.	.
=103	=103	=103	=103	=103
0r	1D	2.d	0r	0r
.	.	8c	.	.
.	.	8B	.	.
.	1F	2A	.	.
.	.	2c	.	.
=104	=104	=104	=104	=104
0r	2.G	2B	1d	1r
.	.	2B	.	.
.	8F	.	.	.
.	8E	.	.	.
.	2D	1d	1f	1a
.	2F	.	.	.
=105	=105	=105	=105	=105
0r	2E	2r	2g	1cc
.	2E	2G	1g	.
.	1D	1A	.	1dd
.	.	.	[2f	.
=106	=106	=106	=106	=106
0r	1d	1B-	2f]	1dd
.	.	.	2g	.
.	2e	[1A	[1a	2cc#
.	2f	.	.	[2dd
=107	=107	=107	=107	=107
1r	1e	1A]	1a]	2dd]
.	.	.	.	2cc#
1G	2r	1B-	1r	1dd
.	[2d	.	.	.
=108	=108	=108	=108	=108
1.F	2d]	2.A	1r	0r
.	2c	.	.	.
.	.	4G	.	.
.	2A	2F	2r	.
2E	[2B	2G	2g	.
=109	=109	=109	=109	=109
2D	4B]	1A	2f	1r
.	4A	.	.	.
2C	1A	.	2e	.
1BB	.	1D	2.d	1dd
.	2G#	.	.	.
.	.	.	4e	.
=110	=110	=110	=110	=110
1AA	1A	2r	2f	1.cc
.	.	1A	4e	.
.	.	.	4d	.
1r	1r	.	2.e	.
.	.	2G	.	2b-
.	.	.	8d	.
.	.	.	8e	.
=111	=111	=111	=111	=111
0r	1r	2F	2f	2a
.	.	2C	2e	2g
.	1d	4D	2.A	1f
.	.	4E	.	.
.	.	4F	.	.
.	.	4G	4B	.
=112	=112	=112	=112	=112
1r	1.c	4A	4c	1e
.	.	4B	4d	.
.	.	2c	4e	.
.	.	.	4f	.
1GG	.	1G	1g	1d
.	2B-	.	.	.
=113	=113	=113	=113	=113
2AA	2A	1c	2f	2r
2C	2G	.	2.e	2e
1D	1F	1A	.	1a
.	.	.	4d	.
.	.	.	[2d	.
=114	=114	=114	=114	=114
1AA	1E	1A	2d]	1a
.	.	.	2c#	.
1D	1D	1A	1d	1f#
=115	=115	=115	=115	=115
[0D	[0D	[0A	[0d	[0f#
=116	=116	=116	=116	=116
0D]	0D]	0A]	0d]	0f#]
!! Amen
*Ibass	*Itenor	*Itenor	*Icalto	*Icant
!Bassus	!Tenor 2	!Tenor 1	!Altus	!Cantus
*clefF4	*clefGv2	*clefGv2	*clefG2	*clefG2
*k[]	*k[]	*k[]	*k[]	*k[]
*D:dor	*D:dor	*D:dor	*D:dor	*D:dor
*M4/2	*M4/2	*M4/2	*M4/2	*M4/2
=117	=117	=117	=117	=117
0r	0r	1c	1r	0r
.	.	1d	1f	.
=118	=118	=118	=118	=118
0r	0r	1G	1g	0r
.	.	2.A	2.c	.
.	.	4B	4d	.
=119	=119	=119	=119	=119
0r	1c	4c	4e	0r
.	.	4d	4f	.
.	.	2.e	1g	.
.	1d	.	.	.
.	.	4d	.	.
.	.	[2d	2f	.
=120	=120	=120	=120	=120
0r	2G	2d]	1e	1r
.	2A	2c#	.	.
.	2.B-	2.d	2r	1f
.	.	.	[2d	.
.	4A	4c	.	.
=121	=121	=121	=121	=121
0r	1G	1B-	2d]	1g
.	.	.	2e	.
.	1F	1A	4f	2.c
.	.	.	4g	.
.	.	.	4a	.
.	.	.	4f	4d
=122	=122	=122	=122	=122
1C	2.c	1r	4g	4e
.	.	.	4f	4f
.	.	.	2.e	1g
.	4B	.	.	.
1D	1A	2r	.	.
.	.	.	4d	.
.	.	2A	[2d	2f
=123	=123	=123	=123	=123
2GG	1r	2B-	2d]	1e
2AA	.	2A	2c#	.
2.BB-	1F	2D	[1d	1d
.	.	[2F	.	.
4AA	.	.	.	.
=124	=124	=124	=124	=124
1GG	1G	4F]	2d]	1b-
.	.	8E	.	.
.	.	8D	.	.
.	.	2E	2G	.
1FF	2.C	1F	2A	1a
.	.	.	[2c	.
.	4D	.	.	.
=125	=125	=125	=125	=125
1.C	4E	2.G	4c]	1g
.	4F	.	4d	.
.	1G	.	1e	.
.	.	8A	.	.
.	.	8B	.	.
.	.	4c	.	[1a
.	.	4B	.	.
2D	2F	4A	[2d	.
.	.	4G	.	.
=126	=126	=126	=126	=126
0AA	0E	0A	2d]	0a]
.	.	.	4c#	.
.	.	.	4B	.
.	.	.	1c#	.
=127	=127	=127	=127	=127
[0D	[0D	[0A	[0d	[0f#
=128	=128	=128	=128	=128
0D]	0D]	0A]	0d]	0f#]
==	==	==	==	==
*-	*-	*-	*-	*-
!!!CDT: 1525/^1526/-1594/2/2
!!!OCY: Italia
!!!AGN: Mass (Paraphrase)
!!!AST: renaissance, vocal
!!!ASW: Gregorian Mass
!!!PWK: Masses, Book Mantuan II
!!!RNB: Cadence finals: A,E
!!!YOR: Le Opere Complete, v. 19, p. 43
!!!YOO: Rome, Italy: Fratelli Scalera
!!!END: 1992//
!!!EED: John Miller
!!!YEC: Copyright 2000, John Miller
!!!YEN: United States of America
!!!YEM: Rights to all derivative electronic formats reserved.
!!!YEM: Refer to licensing agreement for further details.
!!!YEM: This file must be accompanied by the licensing agreement.
!!!YEM: A copy of the licensing agreement may be found at http://www.music-cog.ohio-state.edu/HumdrumDatabases/Palestrina/license.txt
!!!EMD: converted to Humdrum by Bret Aarden
